src/icons/svg/delete.svg

<svg class="icon" viewBox="0 0 1024 1024" xmlns="http://www.w3.org/2000/svg" width="200" height="200"><defs><style/></defs><path d="M704 128c-8.384-49.536-50.56-64-92.8-64H407.872c-42.24 0-79.424 14.464-87.872 64v64h384v-64zM204.8 412.416v473.216c0 48.512 23.488 74.368 76.8 74.368h460.8c53.376 0 76.8-25.856 76.8-74.368V412.416c53.952 0 76.8-29.76 76.8-78.208C896 285.696 872.512 256 819.2 256H204.8c-53.312 0-76.8 29.696-76.8 78.208 0 48.448 23.488 78.208 76.8 78.208zM576 387.968c0-1.472.576-2.56.704-3.968h62.656c.128 1.408.64 2.496.64 3.968v414.464c0 39.424-64 39.424-64 0V387.968zm-192 0c0-1.472.448-2.56.64-3.968h59.136c.128 1.408.704 2.496.704 3.968v414.464c0 39.424-60.48 39.424-60.48 0V387.968z"/></svg>

<?xml version="1.0" standalone="no"?><!DOCTYPE svg PUBLIC "-//W3C//DTD SVG 1.1//EN" "http://www.w3.org/Graphics/SVG/1.1/DTD/svg11.dtd"><svg t="1534752165060" class="icon" style="" viewBox="0 0 1024 1024" version="1.1" xmlns="http://www.w3.org/2000/svg" p-id="2108" xmlns:xlink="http://www.w3.org/1999/xlink" width="200" height="200"><defs><style type="text/css"></style></defs><path d="M704 128c-8.384-49.536-50.56-64-92.8-64L407.872 64C365.632 64 328.448 78.464 320 128l0 64 384 0L704 128z" p-id="2109"></path><path d="M204.8 412.416l0 473.216C204.8 934.144 228.288 960 281.6 960l460.8 0c53.376 0 76.8-25.856 76.8-74.368L819.2 412.416c53.952 0 76.8-29.76 76.8-78.208C896 285.696 872.512 256 819.2 256L550.4 256 204.8 256C151.488 256 128 285.696 128 334.208 128 382.656 151.488 412.416 204.8 412.416zM576 387.968C576 386.496 576.576 385.408 576.704 384l62.656 0C639.488 385.408 640 386.496 640 387.968l0 414.464c0 39.424-64 39.424-64 0L576 387.968zM384 387.968C384 386.496 384.448 385.408 384.64 384l59.136 0c0.128 1.408 0.704 2.496 0.704 3.968l0 414.464c0 39.424-60.48 39.424-60.48 0L384 387.968z" p-id="2110"></path></svg>
